X:1
T:Title
%%score 1 { 2 | 3 }
L:1/8
Q:1/4=87
M:2/4
K:F
V:1 treble nm="Grand Piano, Soprano"
V:2 bass nm="Choir Pad, Modesto, Fillmore, 1893"
V:3 bass 
V:1
 [CF][CF] [CF][CF] | [EG]2 [EG]2 | [FA][FA] [FA][FA] | [EG]4 | [FA][FA] [FA][FA] | [FB]2 [FA]2 | %6
w: By~James~Henry~Fillmore,~Sr.,~1893 * * *||||||
 [FG][EG] [DG][EG] | F4 | [CF][CF] [CF][CF] | [EG]2 [EG]2 | [FA][FA] [FA][FA] | [EG]4 | %12
w: ||||||
 [FA][FA] [FA][FA] | [FB]2 [FA]2 | [FG][EG] [DG][EG] | F4 | [Fc][Fc] [Fc][Fc] | [Fd]2 [Fc]2 | %18
w: ||||||
 [FB][FB] [FA][FA] | [EG]4 | [FA][FA] [EG][EG] | [DF]2 [^CE]2 | [DF][DF] [EG][EG] | F4 | %24
w: ||||||
 [Fc][Fc] [Fc][Fc] | [Fd]2 [Fc]2 | [FB][FB] [FA][FA] | [EG]4 | [FA][FA] [EG][EG] | [DF]2 [^CE]2 | %30
w: ||||||
 [DF][DF] [EG][EG] | F4- | F4 |] %33
w: |||
V:2
 A,A, A,A, | C2[K:treble] C2 | CC CC | C4 | CC CC | D2 C2 | B,B, B,B, | A,4 | A,A, A,A, | C2 C2 | %10
 CC CC | C4 | CC CC | D2 C2 | B,B, B,B, | A,4 | A,A, A,A, | B,2 A,2 | DD CC | C4 | %20
 CC[K:bass] B,B, | A,2 A,2 | A,A, B,B, | A,4 | A,A, A,A, | B,2 A,2 | DD CC | C4 | CC[K:bass] B,B, | %29
 A,2 A,2 | A,A, B,B, | A,4- | A,4 |] %33
V:3
 F,F, F,F, | C,2 C,2 | F,F, F,F, | C,4 | F,E, D,C, | B,,2 [F,,F,]2 | C,C, C,C, | F,4 | F,F, F,F, | %9
 C,2 C,2 | F,F, F,F, | C,4 | F,E, D,C, | B,,2 [F,,F,]2 | C,C, C,C, | F,4 | F,F, F,F, | F,2 F,2 | %18
 F,F, F,F, | A,,4 | F,F, A,,A,, | D,2 F,,2 | D,D, A,,A,, | F,4 | F,F, F,F, | F,2 F,2 | F,F, F,F, | %27
 A,,4 | F,F, A,,A,, | D,2 F,,2 | D,D, A,,A,, | F,4- | F,4 |] %33

